src/assets/img/linkedin.svg

<svg width="24" height="24" viewBox="0 0 24 24" fill="none" xmlns="http://www.w3.org/2000/svg">
<path fill-rule="evenodd" clip-rule="evenodd" d="M2.50704 0.107204C1.32101 0.417929 0.409434 1.33651 0.104708 2.52791C0.00307965 2.92519 0 3.14416 0 9.91115V16.885H0.318584H0.637168V9.94035C0.637168 2.31281 0.619752 2.73637 0.961062 2.06028C1.17287 1.64071 1.64071 1.17287 2.06028 0.961062C2.73765 0.619115 2.2808 0.637168 10.2589 0.637168H17.5221V0.318584V0L10.208 0.00292037C3.18637 0.00573453 2.87835 0.00987616 2.50704 0.107204ZM17.9469 0.318584V0.637168H19.4756C20.6581 0.637168 21.073 0.655062 21.3078 0.71623C22.2902 0.972106 23.0279 1.70979 23.2838 2.69219C23.403 3.15016 23.403 20.8498 23.2838 21.3078C23.0279 22.2902 22.2902 23.0279 21.3078 23.2838C20.8498 23.403 3.15016 23.403 2.69219 23.2838C1.70979 23.0279 0.972106 22.2902 0.71623 21.3078C0.656495 21.0785 0.637168 20.6824 0.637168 19.688V18.3717H0.318584H0V19.7172C0 20.8825 0.0140177 21.1175 0.104708 21.4721C0.410761 22.6687 1.33019 23.589 2.5251 23.8945C2.92842 23.9977 3.13301 24 12 24C20.846 24 21.0724 23.9975 21.4721 23.8953C22.6687 23.5892 23.589 22.6698 23.8945 21.4749C23.9977 21.0716 24 20.867 24 12C24 3.13301 23.9977 2.92842 23.8945 2.5251C23.589 1.33019 22.6687 0.410761 21.4721 0.104708C21.1103 0.0121593 20.8815 0 19.5048 0H17.9469V0.318584ZM6.16195 4.62165C5.14089 4.83335 4.42922 5.87135 4.61527 6.87765C4.69545 7.3115 4.86218 7.6285 5.17439 7.94065C5.95949 8.72581 7.15465 8.72559 7.94012 7.94012C8.81989 7.0603 8.69172 5.63926 7.66906 4.93566C7.2428 4.64235 6.65395 4.51965 6.16195 4.62165ZM6.91694 5.27681C7.99588 5.60156 8.2328 6.98405 7.32255 7.64347C6.55625 8.19855 5.45028 7.75572 5.2551 6.81568C5.11349 6.13343 5.53152 5.45873 6.20915 5.27602C6.52949 5.18963 6.62756 5.18973 6.91694 5.27681ZM4.79549 9.34444C4.73172 9.37073 4.65404 9.43981 4.62292 9.49795C4.58411 9.57048 4.56637 11.1044 4.56637 14.3883V19.173L4.69673 19.3033L4.82703 19.4336H6.55752H8.28802L8.41832 19.3033L8.54867 19.173V14.3711C8.54867 9.72329 8.54543 9.56527 8.4472 9.44395L8.34579 9.31858L6.62862 9.30759C5.68423 9.30154 4.85931 9.31811 4.79549 9.34444ZM9.99903 9.3455C9.93526 9.3712 9.85758 9.43981 9.82646 9.49795C9.78765 9.57048 9.76991 11.1044 9.76991 14.3883V19.173L9.90027 19.3033L10.0306 19.4336H11.4813C12.7085 19.4336 12.9503 19.4209 13.0501 19.351L13.1681 19.2683L13.1698 16.7094C13.1719 13.4761 13.2205 13.0627 13.6496 12.6336C14.1351 12.1481 15.2461 12.208 15.5978 12.7387C15.8918 13.1824 15.8961 13.2298 15.9271 16.3454L15.9558 19.2307L16.0811 19.3322C16.1978 19.4266 16.3087 19.4336 17.6897 19.4336H19.173L19.3033 19.3033L19.4336 19.173L19.4324 16.3962C19.4308 12.6226 19.3639 11.9178 18.9192 10.9933C18.5359 10.1963 17.7498 9.62655 16.7522 9.42271C16.1731 9.3043 15.0248 9.30579 14.4956 9.42552C14.0898 9.51733 13.2662 9.8666 13.1989 9.9754C13.1193 10.1042 13.0619 10.0241 13.0611 9.78319C13.0596 9.30005 13.0304 9.29135 11.4327 9.29538C10.708 9.29724 10.0628 9.31981 9.99903 9.3455ZM7.89855 14.3761L7.91209 18.7965H6.55784H5.20354V14.3982C5.20354 11.9792 5.21989 9.98368 5.23986 9.96372C5.25982 9.94375 5.86312 9.93377 6.58057 9.94158L7.88496 9.95575L7.89855 14.3761ZM12.4248 10.4693C12.4248 11.0875 12.4803 11.2035 12.7764 11.2035C12.9278 11.2035 12.982 11.1634 13.1644 10.9166C13.3907 10.6102 13.5355 10.4903 13.9052 10.3032C14.4667 10.0189 15.2608 9.90345 16.1024 9.98363C17.2934 10.0971 17.9741 10.5032 18.3725 11.3379C18.7341 12.0956 18.7954 12.7973 18.796 16.1814L18.7965 18.7965H17.6814H16.5664V16.279C16.5664 14.2996 16.5499 13.6755 16.4893 13.3589C16.2492 12.1037 15.5331 11.5621 14.281 11.6885C13.4523 11.7722 12.9272 12.2593 12.6568 13.1952C12.5765 13.4728 12.5622 13.8494 12.544 16.156L12.5231 18.7987L11.4784 18.7843L10.4336 18.7699L10.4199 14.4159C10.4124 12.0212 10.4176 10.0321 10.4315 9.99558C10.4505 9.94577 10.7026 9.9292 11.4408 9.9292H12.4248V10.4693ZM0 17.6283V17.9469H0.318584H0.637168V17.6283V17.3097H0.318584H0V17.6283Z" fill="white"/>
</svg>

<svg width="24" height="24" fill="none" xmlns="http://www.w3.org/2000/svg"><path fill-rule="evenodd" clip-rule="evenodd" d="M2.507.107a3.345 3.345 0 0 0-2.402 2.42C.003 2.926 0 3.145 0 9.912v6.974h.637V9.94c0-7.627-.017-7.204.324-7.88.212-.42.68-.887 1.1-1.099.677-.342.22-.324 8.198-.324h7.263V0l-7.314.003C3.186.006 2.878.01 2.507.107Zm15.44.212v.318h1.529c1.182 0 1.597.018 1.832.08.982.255 1.72.993 1.976 1.975.119.458.119 18.158 0 18.616a2.726 2.726 0 0 1-1.976 1.976c-.458.119-18.158.119-18.616 0a2.726 2.726 0 0 1-1.976-1.976c-.06-.23-.079-.626-.079-1.62v-1.316H0v1.345c0 1.166.014 1.4.105 1.755a3.342 3.342 0 0 0 2.42 2.422c.403.104.608.106 9.475.106 8.846 0 9.072-.003 9.472-.105a3.342 3.342 0 0 0 2.422-2.42c.104-.403.106-.608.106-9.475 0-8.867-.002-9.072-.105-9.475a3.342 3.342 0 0 0-2.423-2.42C21.11.012 20.882 0 19.505 0h-1.558v.319ZM6.162 4.622c-1.021.211-1.733 1.25-1.547 2.256.08.433.247.75.56 1.063.784.785 1.98.785 2.765 0 .88-.88.752-2.302-.27-3.005a2.048 2.048 0 0 0-1.508-.314Zm.755.655a1.331 1.331 0 0 1 .406 2.366c-.767.556-1.873.113-2.068-.827a1.32 1.32 0 0 1 .954-1.54c.32-.086.419-.086.708 0ZM4.795 9.344a.4.4 0 0 0-.172.154c-.039.072-.057 1.606-.057 4.89v4.785l.13.13.131.13H8.288l.13-.13.13-.13v-4.802c0-4.648-.003-4.806-.1-4.927l-.102-.125-1.717-.011c-.945-.006-1.77.01-1.834.036ZM10 9.346a.393.393 0 0 0-.173.152c-.038.072-.056 1.606-.056 4.89v4.785l.13.13.13.13h1.451c1.228 0 1.47-.012 1.57-.082l.117-.083.002-2.559c.002-3.233.05-3.646.48-4.075.485-.486 1.596-.426 1.948.105.294.443.298.49.33 3.606l.028 2.886.125.101c.117.095.228.102 1.609.102h1.483l.13-.13.13-.131v-2.777c-.002-3.773-.07-4.478-.514-5.403-.383-.797-1.17-1.366-2.167-1.57-.579-.119-1.727-.117-2.256.003-.406.091-1.23.44-1.297.55-.08.128-.137.048-.138-.193-.001-.483-.03-.492-1.628-.488-.725.002-1.37.025-1.434.05Zm-2.1 5.03.013 4.42H5.204v-4.398c0-2.419.016-4.414.036-4.434.02-.02.623-.03 1.34-.022l1.305.014.014 4.42Zm4.526-3.907c0 .619.055.735.351.735.152 0 .206-.04.388-.287.227-.307.372-.427.741-.614.562-.284 1.356-.4 2.197-.32 1.191.114 1.872.52 2.27 1.355.362.758.423 1.46.424 4.843v2.616h-2.23v-2.518c0-1.98-.016-2.604-.077-2.92-.24-1.255-.956-1.797-2.208-1.67-.829.083-1.354.57-1.624 1.506-.08.278-.095.654-.113 2.961l-.02 2.643-1.046-.015-1.044-.014-.014-4.354c-.008-2.395-.002-4.384.011-4.42.02-.05.272-.067 1.01-.067h.984v.54ZM0 17.63v.318h.637v-.637H0v.318Z" fill="#fff"/></svg>
